X:1
T:Almen se non poss'io - V. Bellini
T:Almen se non poss'io - V. Bellini
%%score 1 { ( 2 5 ) | ( 3 4 ) }
L:1/8
Q:1/4=50
M:6/8
K:C
V:1 treble nm="Violino" snm="Vno."
V:2 treble nm="Piano" snm="Pno."
V:5 treble 
V:3 bass 
V:4 bass 
V:1
"^Largo" z6 | z6 | z6 | z6 | z2 z!mf! z2 G | G2 c (cB) F | (E/>F/) G2 z2 ^G | (AB) c (ed) c | %8
w: ||||Al-|men se non * pos-|s'i- * o Se-|guir _ l'a- ma- * to|
 (B- (3:2:6B/d/c/ B/c/A/) G z G | G2 c (cB) d | G e2 e/>d/f/>e/ (3e/4d/4c/4 (3c/4B/4A/4 | %11
w: be- * * * * * * ne, Af-|fet- ti del _ cor|mi- o, Se- * * * * * * * * *|
 A3/4 G/4 G c B/ A/4B/4 !fermata!e3/2 d/ | c z z z2 e | e2 d d c B | (A2- A/c/4B/4) A z A | %15
w: gui- te- lo se- gui te- * lo per|me. Già|sem- pre\_a lu- i vi-|ci _ _ _ no Rac-|
 f2 e (ed) c | (B2- B/d/4c/4) B z G | G2 c (cB) d | G e2 e/>d/f/>e/ (3e/4d/4c/4 (3c/4B/4 A/4 | %19
w: col- ti\_a- mor _ vi|tie- * * * ne E\_in-|so- li- to _ ca-|mi- no Que- * * * * * * sto _ per|
{A} G z c (B/A/4B/4) !fermata!e3/2 d/ | (d2- d/e/) (e/d/ (3:2:6d/c/B/d/c/A/) | %21
w: * per vo- * * i non|è, _ _ per * * * * * * *|
{A} G z c (B/A/4B/4) !fermata!e3/2 d/ | (d2- d/e/) (e/d/ (3:2:6d/c/B/ d/c/A/) |{A} G z e f A B | %24
w: * per vo- * * i non|è, _ _ per * * * * * * *|* per vo- i non|
 c z z d z z | e z z[Q:1/4=30] (d/4a/4g/4f/4 (3:2:6e/d/e/ f/A/d/) | %26
w: è, no,|no, per- * * * * * * * * *|
"^Largo"[Q:1/4=50] dc/ !fermata!z/ G[Q:1/4=10] (G{!fermata!G!fermata!A!fermata!G!fermata!^F!fermata!G!fermata!A!fermata!B!fermata!c!fermata!B!fermata!A!fermata!B!fermata!c!fermata!d!fermata!e!fermata!d!fermata!^c!fermata!d!fermata!e!fermata!f!fermata!g} !fermata!a3/2) B/ | %27
w: vo- i per vo- * non|
"^Largo"[Q:1/4=50] =c2 z z2 z | z6 | z6 | z6 |] %31
w: è||||
V:2
!mf!"^Largo" z2 z2 z g | g2 c' (c'bf) | %2
 e e'2- (e'/4d'/4).c'/4.b/4.d'/4.c'/4.b/4.a/4.g/4.f/4.e/4.d/4 | (c>de) (gfB) | [FGBd]3 [EGc] z z | %5
!p! z/ (G,/C/G/E/C/) z/ (G,/B,/F/B,/G,/) | z/ (G,/C/G/E/C/) z/ (^G,/C/^G/E/C/) | %7
 z/ (A,/D/F/D/A,/) z/ (A,/C/^F/C/A,/) | z .[B,D].[A,C] z/ (G,/B,/G/=F/D/) | %9
 z/ (G,/C/G/E/C/) z/ (G,/B,/F/B,/G,/) | z/ (G,/C/G/E/C/) [A,DF] x z | %11
 z/ (G,/C/G/E/C/) z/ (G,/B,/F/B,/) z/ | z/ .E/.G/.c/.e/.g/ .c' z z | %13
 (z/ C/E/c/A/E/ z/) (C/E/c/A/E/) | z/ (C/E/c/A/E/) z/ (C/E/c/A/E/) | %15
 z/ (B,/D/B/F/D/) z/ (B,/D/B/F/D/) | z/ (B,/D/^G/D/B,/) z/ (=G,/B,/F/B,/G,/) | %17
 z/ (G,/C/=G/E/C/) z/ (G,/B,/F/B,/G,/) | z/ (G,/C/G/E/C/) [A,DF] x z | %19
 z/ (G,/C/G/E/C/) z/ (G,/B,/F/B,/) z/ | [Ad] z [B,DE] [CE] z [FA] | %21
 z/ (G,/C/G/E/C/) z/ (G,/B,/F/B,/G,/) | [Ad] z [Bde] [ce] z [FA] | %23
 z/ (G,/C/G/E/C/) z/ (G,/B,/F/D/F/) | [CE] z z .[Gd] z z | .[ce] z z [A,D] z z | %26
"^Largo" z/ G,/C/E/C/G,/ [G,B,D] z z |"^Largo" [E,G,C] z z!mf! ([eg]2 [df] | %28
 e) z z!p! ([Ge]2 [Fd] | [Ec]2) z C3 | C3 !fermata!z2 z |] %31
V:3
 E,3 E,3 | E,3 F,3 | B,3 [A,C] [F,A,]2 | EF=G B,3 | z CG, C, z z | C, z z G,, z z | C, z z E, z z | %7
 F, z z D, z z | G, z D, G,, z z | C, z z D, z z | E, z z F, x z | G, z z G,, z z | C, z z z2 z | %13
 [A,,A,] z z [A,,A,] z z | [A,,A,] z z [A,,A,] z z | D, z z D, z z | E, z z [D,,D,] z z | %17
 C, z z D, z z | E, z z F, z z | G,, z z G,, z z | ^F, z ^G, A, z =F, | =G, z z =G,, z z | %22
[K:treble] ^F z ^G A z[K:bass] =F, | =G, z z =G,, z z | C, z z z2 z | z2 z F, z z | G, z z G, z z | %27
 C, z z [C,,C,]3- | [C,,C,] z z G,A,B, | [C,C]2 z C,3 | C,3 !fermata!z2 z |] %31
V:4
 C,.G,.C C,.G,.C | C,.G,.C D,.G,.B, | ^G,DE x x2 | =G,3 G,DF | x6 | x6 | x6 | x6 | x6 | x6 | x6 | %11
 x6 | x6 | x6 | x6 | x6 | x6 | x6 | x6 | x6 | x6 | x6 |[K:treble] x5[K:bass] x | x6 | x6 | x6 | %26
 x6 | x6 | x x x C,3 | x6 | x6 |] %31
V:5
 x6 | x6 | x6 | x6 | x6 | x6 | x6 | x6 | x6 | x6 | x6 | x6 | x6 | x6 | x6 | x6 | x6 | x6 | x6 | %19
 x6 | x6 | x6 | x6 | x6 | x6 | x6 | x6 | x z z (GAB | c) z z x x2 | x6 | x6 |] %31

